icons/luggage-cart-fill.svg

<svg xmlns="http://www.w3.org/2000/svg" width="24" height="24" fill="none"><g clip-path="url(#a)"><g><path fill="#121212" d="M5.49998 20C6.32798 20 6.99998 20.672 6.99998 21.5C6.99998 22.328 6.32798 23 5.49998 23C4.67198 23 3.99998 22.328 3.99998 21.5C3.99998 20.672 4.67198 20 5.49998 20ZM18.5 20C19.328 20 20 20.672 20 21.5C20 22.328 19.328 23 18.5 23C17.672 23 17 22.328 17 21.5C17 20.672 17.672 20 18.5 20ZM2.17198 1.75702L5.99898 5.58502V17H20V19H4.99998C4.44798 19 3.99998 18.552 3.99998 18V6.41302L0.755981 3.17202L2.17098 1.75702H2.17198ZM16 3.00002C16.552 3.00002 17 3.44802 17 4.00002V6.00002H19.993C20.55 6.00002 21 6.45602 21 6.99502V15.005C21 15.555 20.55 16 19.993 16H8.00698C7.44998 16 6.99998 15.544 6.99998 15.005V6.99502C6.99998 6.44502 7.44998 6.00002 8.00698 6.00002H10.999L11 4.00002C11 3.44802 11.448 3.00002 12 3.00002H16ZM11 8.00002H9.99998V14H11V8.00002ZM18 8.00002H17V14H18V8.00002ZM15 5.00002H13V6.00002H15V5.00002Z"/></g></g><defs><clipPath id="a"><rect width="24" height="24" fill="white"/></clipPath></defs></svg>

<svg width="24" height="24" fill="none" xmlns="http://www.w3.org/2000/svg"><g clip-path="url(#a)"><path d="M5.5 20a1.5 1.5 0 1 1-.001 3.001A1.5 1.5 0 0 1 5.5 20Zm13 0a1.5 1.5 0 1 1-.001 3.001A1.5 1.5 0 0 1 18.5 20ZM2.172 1.757l3.827 3.828V17H20v2H5a1 1 0 0 1-1-1V6.413L.756 3.172l1.415-1.415h.001ZM16 3a1 1 0 0 1 1 1v2h2.993C20.55 6 21 6.456 21 6.995v8.01a1 1 0 0 1-1.007.995H8.007A1.007 1.007 0 0 1 7 15.005v-8.01A1 1 0 0 1 8.007 6h2.992L11 4a1 1 0 0 1 1-1h4Zm-5 5h-1v6h1V8Zm7 0h-1v6h1V8Zm-3-3h-2v1h2V5Z" /></g><defs><clipPath id="a"><path fill="#fff" d="M0 0h24v24H0z"/></clipPath></defs></svg>
